X: 1
T: The Cliffs Of Moher
R: jig
M: 6/8
L: 1/8
K: Ador
|:a3 bag| eaf ged| c2A BAG| EFG ABd|
eaa bag| eaf ged|c2A BAG| EFG A3:|
e2e dBA| e2e dBA| GAB dBA| GAB dBd|
e2e dBA| e2e dBA| GAB dBA| EFG A3|
efe dBA| efe dBA|GAB dBA| GAB dBd|
efe ded| cec BeB| GAB dBA| EFG A3|


Tune 12	Setting 12375

